dist/img/footer/social/fb-hover.svg

<svg width="40" height="40" viewBox="0 0 40 40" fill="none" xmlns="http://www.w3.org/2000/svg">
<path fill-rule="evenodd" clip-rule="evenodd" d="M0 20.1117C0 30.055 7.22167 38.3233 16.6667 40V25.555H11.6667V20H16.6667V15.555C16.6667 10.555 19.8883 7.77833 24.445 7.77833C25.8883 7.77833 27.445 8 28.8883 8.22167V13.3333H26.3333C23.8883 13.3333 23.3333 14.555 23.3333 16.1117V20H28.6667L27.7783 25.555H23.3333V40C32.7783 38.3233 40 30.0567 40 20.1117C40 9.05 31 0 20 0C9 0 0 9.05 0 20.1117Z" fill="#F4972A"/>
</svg>

<svg width="40" height="40" fill="none" xmlns="http://www.w3.org/2000/svg"><path fill-rule="evenodd" clip-rule="evenodd" d="M0 20.112C0 30.055 7.222 38.323 16.667 40V25.555h-5V20h5v-4.445c0-5 3.221-7.777 7.778-7.777 1.443 0 3 .222 4.443.444v5.111h-2.555c-2.445 0-3 1.222-3 2.779V20h5.334l-.889 5.555h-4.445V40C32.778 38.323 40 30.057 40 20.112 40 9.05 31 0 20 0S0 9.05 0 20.112Z" fill="#F4972A"/></svg>
